!!!OTL: Im Wald, im Wald, im Wald da ist mein Aufenthalt
!!!ARE: Europa, Mitteleuropa, Deutschland, Untermainfranken, Spessart
!!!SCT: D0182
!!!YEM: Copyright 1995, estate of Helmut Schaffrath.
**kern
*ICvox
*Ivox
*M6/8
*k[f#c#]
*D:
=1
{8a
=2
4a
8a
4a
8ff#
=3
[4.dd
4dd]}
{8a
=4
4a
8a
4b
8a
=5
[4.g
4g]}
{8ff#
=6
4ee
8ff#
4ee
8ff#
=7
[4.ee
4ee]}
{8dd
=8
4cc#
8b
4a
8g
=9
[4.f#
4f#]}
{16a
16a
=10
8ff#
8ee
8dd
8dd
8cc#
8b
=11
8a
8a
8a
8a
8a}
{8dd
=12
8cc#
8cc#
8cc#
8cc#
8cc#
8ee
=13
8dd
8dd
8dd
8dd
8dd}
{16a
16a
=14
8ff#
8ee
8dd
8dd
8cc#
8b
=15
8a
8a
8a
8a
8a}
{16dd
16dd
=16
8cc#
8cc#
8a
8ff#
8ff#
8ee
=17
[4.d
4d]}
==
!!!AGN: Jaeger - Lied
!! Inzipit = Variante zum Lied; Sequenzen
!!!ONB: ESAC (Essen Associative Code) Database: DVA
!!!AMT: compound duple
!!!AIN: vox
!!!EED: Helmut Schaffrath
!!!EEV: 1.0
*-
